bicons/scalable/emblems/structured-program-stay-abroad.svg

<?xml version="1.0" encoding="UTF-8" standalone="no"?>
<!-- Created with Inkscape (http://www.inkscape.org/) -->

<svg
   xmlns:dc="http://purl.org/dc/elements/1.1/"
   xmlns:cc="http://creativecommons.org/ns#"
   xmlns:rdf="http://www.w3.org/1999/02/22-rdf-syntax-ns#"
   xmlns:svg="http://www.w3.org/2000/svg"
   xmlns="http://www.w3.org/2000/svg"
   xmlns:xlink="http://www.w3.org/1999/xlink"
   xmlns:sodipodi="http://sodipodi.sourceforge.net/DTD/sodipodi-0.dtd"
   xmlns:inkscape="http://www.inkscape.org/namespaces/inkscape"
   width="210mm"
   height="297mm"
   viewBox="0 0 744.09448819 1052.3622047"
   id="svg2"
   version="1.1"
   inkscape:version="0.91 r13725"
   inkscape:export-xdpi="4"
   inkscape:export-ydpi="4"
   sodipodi:docname="structured-program-stay-abroad.svg">
  <title
     id="title4162">structured program stay abroad</title>
  <defs
     id="defs4">
    <linearGradient
       inkscape:collect="always"
       xlink:href="#linearGradient4181"
       id="linearGradient4187"
       x1="315.36963"
       y1="650.72552"
       x2="520.4306"
       y2="387.68182"
       gradientUnits="userSpaceOnUse"
       gradientTransform="matrix(0.95975329,0,0,0.95975329,15.64986,45.217543)" />
    <linearGradient
       inkscape:collect="always"
       id="linearGradient4181">
      <stop
         style="stop-color:#4e505d;stop-opacity:1;"
         offset="0"
         id="stop4183" />
      <stop
         style="stop-color:#7a8597;stop-opacity:1"
         offset="1"
         id="stop4185" />
    </linearGradient>
  </defs>
  <sodipodi:namedview
     id="base"
     pagecolor="#ffffff"
     bordercolor="#666666"
     borderopacity="1.0"
     inkscape:pageopacity="0.0"
     inkscape:pageshadow="2"
     inkscape:zoom="0.5"
     inkscape:cx="-80.027669"
     inkscape:cy="562.89929"
     inkscape:document-units="px"
     inkscape:current-layer="layer1"
     showgrid="false"
     showguides="true"
     inkscape:guide-bbox="true"
     inkscape:window-width="1600"
     inkscape:window-height="837"
     inkscape:window-x="-4"
     inkscape:window-y="-4"
     inkscape:window-maximized="1"
     inkscape:snap-bbox="true"
     inkscape:bbox-nodes="true">
    <sodipodi:guide
       position="560,730.00002"
       orientation="0,1"
       id="guide3338" />
    <sodipodi:guide
       position="560,330.00001"
       orientation="0,1"
       id="guide3340" />
    <sodipodi:guide
       position="190,475.00001"
       orientation="1,0"
       id="guide3344" />
    <sodipodi:guide
       position="590,451.00001"
       orientation="1,0"
       id="guide3346" />
    <inkscape:grid
       type="xygrid"
       id="grid3440" />
  </sodipodi:namedview>
  <metadata
     id="metadata7">
    <rdf:RDF>
      <cc:Work
         rdf:about="">
        <dc:format>image/svg+xml</dc:format>
        <dc:type
           rdf:resource="http://purl.org/dc/dcmitype/StillImage" />
        <dc:title>structured program stay abroad</dc:title>
        <dc:date>June 2015</dc:date>
        <dc:creator>
          <cc:Agent>
            <dc:title>Johannes Hechler</dc:title>
          </cc:Agent>
        </dc:creator>
        <dc:rights>
          <cc:Agent>
            <dc:title>Johannes Hechler</dc:title>
          </cc:Agent>
        </dc:rights>
        <dc:publisher>
          <cc:Agent>
            <dc:title>RRZE</dc:title>
          </cc:Agent>
        </dc:publisher>
        <dc:contributor>
          <cc:Agent>
            <dc:title>Ute Weber, Hendrik Eggers, Joanna Barbach</dc:title>
          </cc:Agent>
        </dc:contributor>
        <dc:subject>
          <rdf:Bag>
            <rdf:li>slide</rdf:li>
            <rdf:li>transperancy</rdf:li>
            <rdf:li>flip chart</rdf:li>
            <rdf:li>chart</rdf:li>
          </rdf:Bag>
        </dc:subject>
        <cc:license
           rdf:resource="http://creativecommons.org/licenses/by-sa/3.0/" />
      </cc:Work>
      <cc:License
         rdf:about="http://creativecommons.org/licenses/by-sa/3.0/">
        <cc:permits
           rdf:resource="http://creativecommons.org/ns#Reproduction" />
        <cc:permits
           rdf:resource="http://creativecommons.org/ns#Distribution" />
        <cc:requires
           rdf:resource="http://creativecommons.org/ns#Notice" />
        <cc:requires
           rdf:resource="http://creativecommons.org/ns#Attribution" />
        <cc:permits
           rdf:resource="http://creativecommons.org/ns#DerivativeWorks" />
        <cc:requires
           rdf:resource="http://creativecommons.org/ns#ShareAlike" />
      </cc:License>
    </rdf:RDF>
  </metadata>
  <g
     inkscape:label="Ebene 1"
     inkscape:groupmode="layer"
     id="layer1">
    <g
       id="g4219">
      <rect
         y="322.36221"
         x="190"
         height="400"
         width="400"
         id="rect4160"
         style="opacity:1;fill:none;fill-opacity:1;stroke:none;stroke-width:23;stroke-linecap:butt;stroke-linejoin:round;stroke-miterlimit:4;stroke-dasharray:none;stroke-opacity:1" />
      <path
         sodipodi:nodetypes="sssscscccccccsssscssccssccsssssccccscssc"
         inkscape:connector-curvature="0"
         id="rect4169"
         d="m 205.6582,354.80859 c -4.20071,0 -7.58398,3.38329 -7.58398,7.58399 l 0,8.59961 c 0,4.20073 3.38327,7.58398 7.58398,7.58398 l 3.78907,0 0,199.34961 c 0,10.50187 14.58203,14.58203 14.58203,14.58203 l 97.375,0 -54.5293,67.91407 c -5.92979,10.27066 -2.43474,23.3124 7.83594,29.24218 l 2.97656,1.7168 c 10.2707,5.92977 23.31438,2.43474 29.24414,-7.83594 l 59.07813,-75.79883 0,63.98633 c 0,11.85958 9.54474,21.4043 21.40429,21.4043 l 3.43555,0 c 11.85956,0 21.41016,-9.54472 21.41016,-21.4043 l 0,-60.86328 c -16.91787,-12.69789 -30.22082,-29.56635 -38.85938,-49.70312 -6.472,-15.08657 -9.63477,-31.15659 -9.63477,-47.5293 10e-6,-16.37041 3.17657,-32.36286 9.63477,-47.41406 12.67163,-29.53799 35.38498,-51.9325 64.76172,-64.53321 15.00458,-6.43728 30.96323,-9.75 47.41406,-9.75 16.47504,0 32.40553,3.34954 47.38086,9.73633 13.86924,5.91518 26.18827,13.9894 36.66406,23.92578 l 0,-47.02539 3.78907,0 c 4.20069,0 7.58398,-3.38325 7.58398,-7.58398 l 0,-8.59961 c 0,-4.2007 -3.38329,-7.58399 -7.58398,-7.58399 z m 216.02149,262.4668 48.85742,65.56055 c 5.92978,10.2707 18.97346,13.76375 29.24414,7.83398 l 2.97266,-1.7168 c 10.27068,-5.92979 15.08731,-19.85778 7.83593,-29.24218 l -18.78515,-24.31055 c -2.06669,0.1066 -4.14348,0.16016 -6.22852,0.16016 -16.44887,0 -32.40767,-3.30803 -47.41406,-9.7461 -5.76236,-2.47216 -11.26164,-5.32972 -16.48242,-8.53906 z"
         style="opacity:1;fill:url(#linearGradient4187);fill-opacity:1;stroke:none;stroke-width:16;stroke-linecap:round;stroke-linejoin:round;stroke-miterlimit:4;stroke-dasharray:none;stroke-opacity:1" />
      <path
         id="rect4174"
         d="m 238.79883,387.67773 c -5.75803,0 -10.39453,4.63455 -10.39453,10.39258 0,5.75803 4.6365,10.39453 10.39453,10.39453 l 155.72851,0 c 9.62959,-8.28682 20.42573,-15.27131 32.15039,-20.78711 z m 0,50.32618 c -5.75803,0 -10.39453,4.6365 -10.39453,10.39453 0,5.75803 4.6365,10.39258 10.39453,10.39258 l 118.75586,0 c 3.17102,-7.30943 6.90772,-14.25202 11.1582,-20.78711 z m 0,50.32617 c -5.75803,0 -10.39453,4.6365 -10.39453,10.39453 0,5.75803 4.6365,10.39258 10.39453,10.39258 l 107.54687,0 c 0.22205,-6.98733 0.96007,-13.93259 2.22071,-20.78711 z"
         style="opacity:1;fill:#ffffff;fill-opacity:1;stroke:none;stroke-width:16;stroke-linecap:round;stroke-linejoin:round;stroke-miterlimit:4;stroke-dasharray:none;stroke-opacity:1"
         inkscape:connector-curvature="0"
         sodipodi:nodetypes="sssccssssccssssccs" />
      <path
         style="fill:#99b000;fill-opacity:1"
         d="m 581.66836,473.12252 c -11.00496,-25.65696 -29.7058,-44.31653 -55.57695,-55.35047 -12.93064,-5.51476 -26.36298,-8.33165 -40.51599,-8.33165 -14.15029,0 -27.59731,2.79028 -40.51362,8.33165 -25.65661,11.0046 -44.55494,29.65225 -55.57933,55.35047 -5.5243,12.8747 -8.21704,26.36298 -8.21704,40.51327 0,14.15302 2.69274,27.75317 8.21704,40.63059 11.02439,25.69822 29.92238,44.45774 55.57933,55.46506 12.91631,5.54138 26.36298,8.32893 40.51362,8.32893 14.15301,0 27.58535,-2.81689 40.51599,-8.32893 25.8715,-11.03426 44.57234,-29.81048 55.57695,-55.46506 C 587.20972,541.34769 590,527.78881 590,513.63579 c 0,-14.15029 -2.79028,-27.59491 -8.33164,-40.51327 z M 450.8808,428.84249 c -9.01583,11.4115 -15.63327,25.90525 -19.85742,43.48124 l -27.27567,0 c 10.04279,-19.51633 26.93495,-35.15199 47.13309,-43.48124 z m -56.9477,84.7933 c 0,-9.92854 1.59721,-19.51395 4.67948,-28.75864 l 29.90053,0 c -1.48296,9.69967 -2.1692,19.28781 -2.1692,28.75864 0,9.35893 0.68657,18.83282 2.1692,28.53252 l -30.1294,0 c -2.96765,-9.2447 -4.45061,-18.83012 -4.45061,-28.53252 z m 9.81461,41.08592 27.27602,0 c 4.22415,17.91672 10.84191,32.63934 19.85741,43.93896 -20.54194,-8.56051 -37.43376,-24.19581 -47.13343,-43.93896 z m 75.43674,49.64369 c -7.41861,-2.16715 -14.37948,-7.64508 -20.65586,-16.5463 -6.27669,-8.90363 -11.07042,-19.97201 -14.37949,-33.09739 l 35.03535,0 0,49.64369 z m 0,-62.19709 -37.88906,0 c -1.48503,-10.15774 -2.28382,-19.63128 -2.28382,-28.53252 0,-9.58541 0.79846,-19.17322 2.51267,-28.75864 l 37.65988,0 0,57.29116 3.3e-4,0 z m 0,-69.84424 -35.03535,0 c 3.53758,-13.01111 8.35827,-23.94785 14.60836,-32.75427 6.3033,-8.88418 13.00874,-14.37949 20.42733,-16.43444 l 0,49.18871 z m 88.3336,0 -27.27634,0 c -4.22177,-17.57633 -10.84159,-32.07008 -19.85742,-43.48124 20.20088,8.32891 37.09062,23.96457 47.13376,43.48124 z m -75.43707,-49.18871 c 7.41861,2.05495 14.12369,7.55026 20.42733,16.43444 6.25215,8.80642 11.07044,19.74316 14.60802,32.75427 l -35.03535,0 0,-49.18871 z m 0,61.74179 37.65988,0 c 1.71387,9.58542 2.51266,19.17323 2.51266,28.75864 0,8.90158 -0.79879,18.37478 -2.28382,28.53252 l -37.88872,0 0,-57.29116 z m 0,119.48825 0,-49.64369 35.03535,0 c -3.42298,13.12538 -8.28016,24.14977 -14.49376,33.09739 -6.22794,8.96945 -13.00872,14.49375 -20.54159,16.5463 z m 28.30365,-5.70473 c 9.01583,-11.29962 15.63566,-26.02224 19.85742,-43.93896 l 27.27636,0 c -9.70003,19.74315 -26.59252,35.37845 -47.13378,43.93896 z m 52.49709,-56.49236 -30.12941,0 c 1.48503,-9.70003 2.16921,-19.17359 2.16921,-28.53252 0,-9.47083 -0.68418,-19.05863 -2.16921,-28.75864 l 29.90056,0 c 3.08224,9.24435 4.67946,18.82976 4.67946,28.75864 -3.3e-4,9.7024 -1.48262,19.28782 -4.45061,28.53252 z"
         id="path5"
         inkscape:connector-curvature="0" />
    </g>
  </g>
</svg>

<?xml version="1.0" encoding="UTF-8" standalone="no"?>
<!-- Created with Inkscape (http://www.inkscape.org/) -->

<svg
   xmlns:dc="http://purl.org/dc/elements/1.1/"
   xmlns:cc="http://creativecommons.org/ns#"
   xmlns:rdf="http://www.w3.org/1999/02/22-rdf-syntax-ns#"
   xmlns:svg="http://www.w3.org/2000/svg"
   xmlns="http://www.w3.org/2000/svg"
   xmlns:xlink="http://www.w3.org/1999/xlink"
   xmlns:sodipodi="http://sodipodi.sourceforge.net/DTD/sodipodi-0.dtd"
   xmlns:inkscape="http://www.inkscape.org/namespaces/inkscape"
   width="210mm"
   height="297mm"
   viewBox="0 0 744.09448819 1052.3622047"
   id="svg2"
   version="1.1"
   inkscape:version="0.91 r13725"
   inkscape:export-xdpi="4"
   inkscape:export-ydpi="4"
   sodipodi:docname="structured-program-stay-abroad.svg">
  <title
     id="title4162">structured program stay abroad</title>
  <defs
     id="defs4">
    <linearGradient
       inkscape:collect="always"
       xlink:href="#linearGradient4181"
       id="linearGradient4187"
       x1="315.36963"
       y1="650.72552"
       x2="520.4306"
       y2="387.68182"
       gradientUnits="userSpaceOnUse"
       gradientTransform="matrix(0.95975329,0,0,0.95975329,15.64986,45.217543)" />
    <linearGradient
       inkscape:collect="always"
       id="linearGradient4181">
      <stop
         style="stop-color:#4e505d;stop-opacity:1;"
         offset="0"
         id="stop4183" />
      <stop
         style="stop-color:#7a8597;stop-opacity:1"
         offset="1"
         id="stop4185" />
    </linearGradient>
  </defs>
  <sodipodi:namedview
     id="base"
     pagecolor="#ffffff"
     bordercolor="#666666"
     borderopacity="1.0"
     inkscape:pageopacity="0.0"
     inkscape:pageshadow="2"
     inkscape:zoom="0.5"
     inkscape:cx="63.972331"
     inkscape:cy="532.89929"
     inkscape:document-units="px"
     inkscape:current-layer="layer1"
     showgrid="false"
     showguides="true"
     inkscape:guide-bbox="true"
     inkscape:window-width="1600"
     inkscape:window-height="837"
     inkscape:window-x="-4"
     inkscape:window-y="-4"
     inkscape:window-maximized="1"
     inkscape:snap-bbox="true"
     inkscape:bbox-nodes="true">
    <sodipodi:guide
       position="560,730.00002"
       orientation="0,1"
       id="guide3338" />
    <sodipodi:guide
       position="560,330.00001"
       orientation="0,1"
       id="guide3340" />
    <sodipodi:guide
       position="190,475.00001"
       orientation="1,0"
       id="guide3344" />
    <sodipodi:guide
       position="590,451.00001"
       orientation="1,0"
       id="guide3346" />
    <inkscape:grid
       type="xygrid"
       id="grid3440" />
  </sodipodi:namedview>
  <metadata
     id="metadata7">
    <rdf:RDF>
      <cc:Work
         rdf:about="">
        <dc:format>image/svg+xml</dc:format>
        <dc:type
           rdf:resource="http://purl.org/dc/dcmitype/StillImage" />
        <dc:title>structured program stay abroad</dc:title>
        <dc:date>June 2015</dc:date>
        <dc:creator>
          <cc:Agent>
            <dc:title>Johannes Hechler</dc:title>
          </cc:Agent>
        </dc:creator>
        <dc:rights>
          <cc:Agent>
            <dc:title>Johannes Hechler</dc:title>
          </cc:Agent>
        </dc:rights>
        <dc:publisher>
          <cc:Agent>
            <dc:title>RRZE</dc:title>
          </cc:Agent>
        </dc:publisher>
        <dc:contributor>
          <cc:Agent>
            <dc:title>Ute Weber, Hendrik Eggers, Joanna Barbach</dc:title>
          </cc:Agent>
        </dc:contributor>
        <dc:subject>
          <rdf:Bag>
            <rdf:li>slide</rdf:li>
            <rdf:li>transperancy</rdf:li>
            <rdf:li>flip chart</rdf:li>
            <rdf:li>chart</rdf:li>
          </rdf:Bag>
        </dc:subject>
        <cc:license
           rdf:resource="http://creativecommons.org/licenses/by-sa/3.0/" />
      </cc:Work>
      <cc:License
         rdf:about="http://creativecommons.org/licenses/by-sa/3.0/">
        <cc:permits
           rdf:resource="http://creativecommons.org/ns#Reproduction" />
        <cc:permits
           rdf:resource="http://creativecommons.org/ns#Distribution" />
        <cc:requires
           rdf:resource="http://creativecommons.org/ns#Notice" />
        <cc:requires
           rdf:resource="http://creativecommons.org/ns#Attribution" />
        <cc:permits
           rdf:resource="http://creativecommons.org/ns#DerivativeWorks" />
        <cc:requires
           rdf:resource="http://creativecommons.org/ns#ShareAlike" />
      </cc:License>
    </rdf:RDF>
  </metadata>
  <g
     inkscape:label="Ebene 1"
     inkscape:groupmode="layer"
     id="layer1">
    <g
       id="g4219">
      <rect
         y="322.36221"
         x="190"
         height="400"
         width="400"
         id="rect4160"
         style="opacity:1;fill:none;fill-opacity:1;stroke:none;stroke-width:23;stroke-linecap:butt;stroke-linejoin:round;stroke-miterlimit:4;stroke-dasharray:none;stroke-opacity:1" />
      <path
         sodipodi:nodetypes="sssscscccccccsssscssccssccsssssccccscssc"
         inkscape:connector-curvature="0"
         id="rect4169"
         d="m 205.6582,354.80859 c -4.20071,0 -7.58398,3.38329 -7.58398,7.58399 l 0,8.59961 c 0,4.20073 3.38327,7.58398 7.58398,7.58398 l 3.78907,0 0,199.34961 c 0,10.50187 14.58203,14.58203 14.58203,14.58203 l 97.375,0 -54.5293,67.91407 c -5.92979,10.27066 -2.43474,23.3124 7.83594,29.24218 l 2.97656,1.7168 c 10.2707,5.92977 23.31438,2.43474 29.24414,-7.83594 l 59.07813,-75.79883 0,63.98633 c 0,11.85958 9.54474,21.4043 21.40429,21.4043 l 3.43555,0 c 11.85956,0 21.41016,-9.54472 21.41016,-21.4043 l 0,-60.86328 c -16.91787,-12.69789 -30.22082,-29.56635 -38.85938,-49.70312 -6.472,-15.08657 -9.63477,-31.15659 -9.63477,-47.5293 10e-6,-16.37041 3.17657,-32.36286 9.63477,-47.41406 12.67163,-29.53799 35.38498,-51.9325 64.76172,-64.53321 15.00458,-6.43728 30.96323,-9.75 47.41406,-9.75 16.47504,0 32.40553,3.34954 47.38086,9.73633 13.86924,5.91518 26.18827,13.9894 36.66406,23.92578 l 0,-47.02539 3.78907,0 c 4.20069,0 7.58398,-3.38325 7.58398,-7.58398 l 0,-8.59961 c 0,-4.2007 -3.38329,-7.58399 -7.58398,-7.58399 z m 216.02149,262.4668 48.85742,65.56055 c 5.92978,10.2707 18.97346,13.76375 29.24414,7.83398 l 2.97266,-1.7168 c 10.27068,-5.92979 15.08731,-19.85778 7.83593,-29.24218 l -18.78515,-24.31055 c -2.06669,0.1066 -4.14348,0.16016 -6.22852,0.16016 -16.44887,0 -32.40767,-3.30803 -47.41406,-9.7461 -5.76236,-2.47216 -11.26164,-5.32972 -16.48242,-8.53906 z"
         style="opacity:1;fill:url(#linearGradient4187);fill-opacity:1;stroke:none;stroke-width:16;stroke-linecap:round;stroke-linejoin:round;stroke-miterlimit:4;stroke-dasharray:none;stroke-opacity:1" />
      <path
         id="rect4174"
         d="M 238.79883 387.67773 C 233.0408 387.67773 228.4043 392.31228 228.4043 398.07031 C 228.4043 403.82834 233.0408 408.46484 238.79883 408.46484 L 394.52734 408.46484 C 404.15693 400.17802 414.95307 393.19353 426.67773 387.67773 L 238.79883 387.67773 z M 238.79883 438.00391 C 233.0408 438.00391 228.4043 442.64041 228.4043 448.39844 C 228.4043 454.15647 233.0408 458.79102 238.79883 458.79102 L 357.55469 458.79102 C 360.72571 451.48159 364.46241 444.539 368.71289 438.00391 L 238.79883 438.00391 z M 413.86914 438.00391 C 407.36932 444.10891 401.69575 451.05558 396.91797 458.79102 L 484.91992 458.79102 C 490.67795 458.79102 495.31445 454.15647 495.31445 448.39844 C 495.31445 442.64041 490.67795 438.00391 484.91992 438.00391 L 413.86914 438.00391 z M 238.79883 488.33008 C 233.0408 488.33008 228.4043 492.96658 228.4043 498.72461 C 228.4043 504.48264 233.0408 509.11719 238.79883 509.11719 L 346.3457 509.11719 C 346.56775 502.12986 347.30577 495.1846 348.56641 488.33008 L 238.79883 488.33008 z M 384.34961 488.33008 C 382.65053 495.09907 381.66002 502.03696 381.36523 509.11719 L 439.09766 509.11719 C 439.18921 506.35463 439.34555 503.66504 439.54102 501.06445 A 17.50175 17.50175 0 0 1 446.58789 488.33008 L 384.34961 488.33008 z M 472.08789 488.33008 A 17.50175 17.50175 0 0 1 479.18359 502.37695 L 479.18359 509.11719 L 492.08008 509.11719 L 492.08008 502.37695 A 17.50175 17.50175 0 0 1 498.92578 488.52148 C 498.28739 488.39976 497.62994 488.33008 496.95508 488.33008 L 472.08789 488.33008 z "
         style="opacity:1;fill:#ffffff;fill-opacity:1;stroke:none;stroke-width:16;stroke-linecap:round;stroke-linejoin:round;stroke-miterlimit:4;stroke-dasharray:none;stroke-opacity:1" />
      <path
         style="fill:#99b000;fill-opacity:1"
         d="m 581.66836,473.12252 c -11.00496,-25.65696 -29.7058,-44.31653 -55.57695,-55.35047 -12.93064,-5.51476 -26.36298,-8.33165 -40.51599,-8.33165 -14.15029,0 -27.59731,2.79028 -40.51362,8.33165 -25.65661,11.0046 -44.55494,29.65225 -55.57933,55.35047 -5.5243,12.8747 -8.21704,26.36298 -8.21704,40.51327 0,14.15302 2.69274,27.75317 8.21704,40.63059 11.02439,25.69822 29.92238,44.45774 55.57933,55.46506 12.91631,5.54138 26.36298,8.32893 40.51362,8.32893 14.15301,0 27.58535,-2.81689 40.51599,-8.32893 25.8715,-11.03426 44.57234,-29.81048 55.57695,-55.46506 C 587.20972,541.34769 590,527.78881 590,513.63579 c 0,-14.15029 -2.79028,-27.59491 -8.33164,-40.51327 z M 450.8808,428.84249 c -9.01583,11.4115 -15.63327,25.90525 -19.85742,43.48124 l -27.27567,0 c 10.04279,-19.51633 26.93495,-35.15199 47.13309,-43.48124 z m -56.9477,84.7933 c 0,-9.92854 1.59721,-19.51395 4.67948,-28.75864 l 29.90053,0 c -1.48296,9.69967 -2.1692,19.28781 -2.1692,28.75864 0,9.35893 0.68657,18.83282 2.1692,28.53252 l -30.1294,0 c -2.96765,-9.2447 -4.45061,-18.83012 -4.45061,-28.53252 z m 9.81461,41.08592 27.27602,0 c 4.22415,17.91672 10.84191,32.63934 19.85741,43.93896 -20.54194,-8.56051 -37.43376,-24.19581 -47.13343,-43.93896 z m 75.43674,49.64369 c -7.41861,-2.16715 -14.37948,-7.64508 -20.65586,-16.5463 -6.27669,-8.90363 -11.07042,-19.97201 -14.37949,-33.09739 l 35.03535,0 0,49.64369 z m 0,-62.19709 -37.88906,0 c -1.48503,-10.15774 -2.28382,-19.63128 -2.28382,-28.53252 0,-9.58541 0.79846,-19.17322 2.51267,-28.75864 l 37.65988,0 0,57.29116 3.3e-4,0 z m 0,-69.84424 -35.03535,0 c 3.53758,-13.01111 8.35827,-23.94785 14.60836,-32.75427 6.3033,-8.88418 13.00874,-14.37949 20.42733,-16.43444 l 0,49.18871 z m 88.3336,0 -27.27634,0 c -4.22177,-17.57633 -10.84159,-32.07008 -19.85742,-43.48124 20.20088,8.32891 37.09062,23.96457 47.13376,43.48124 z m -75.43707,-49.18871 c 7.41861,2.05495 14.12369,7.55026 20.42733,16.43444 6.25215,8.80642 11.07044,19.74316 14.60802,32.75427 l -35.03535,0 0,-49.18871 z m 0,61.74179 37.65988,0 c 1.71387,9.58542 2.51266,19.17323 2.51266,28.75864 0,8.90158 -0.79879,18.37478 -2.28382,28.53252 l -37.88872,0 0,-57.29116 z m 0,119.48825 0,-49.64369 35.03535,0 c -3.42298,13.12538 -8.28016,24.14977 -14.49376,33.09739 -6.22794,8.96945 -13.00872,14.49375 -20.54159,16.5463 z m 28.30365,-5.70473 c 9.01583,-11.29962 15.63566,-26.02224 19.85742,-43.93896 l 27.27636,0 c -9.70003,19.74315 -26.59252,35.37845 -47.13378,43.93896 z m 52.49709,-56.49236 -30.12941,0 c 1.48503,-9.70003 2.16921,-19.17359 2.16921,-28.53252 0,-9.47083 -0.68418,-19.05863 -2.16921,-28.75864 l 29.90056,0 c 3.08224,9.24435 4.67946,18.82976 4.67946,28.75864 -3.3e-4,9.7024 -1.48262,19.28782 -4.45061,28.53252 z"
         id="path5"
         inkscape:connector-curvature="0" />
    </g>
  </g>
</svg>
